X:1
T: The Auld Man's Mare's Dead
C:Patie Burnie
R:Strathspey
Q:128
K:Em
M:4/4
L:1/16
|:F2|E4E4E4 d3B|AF3 E3D D3E F3D|G3F G3A BG3 A3B|d3B A3F E6F2|
E4E4E4 d3B|AF3 E3D D3E F3D|G3F G3A BG3 A3B|d3B A3F E4 B3d|
e4 eB3 e4 eB3|d4 df3 D3E FD3|e3g B3e B4 Ad3|B3A d3F E4 B3d|
e4 eB3 e4 eB3|d4 df3 D3E FD3|e3g B3e B4 Ad3|B3A d3F E6:|
